src/16/actions/insert-table.svg

<svg xmlns="http://www.w3.org/2000/svg" viewBox="0 0 16 16"><defs id="defs3051"><style type="text/css" id="current-color-scheme"></style></defs><path d="M2 2v12h7v-1H7v-3h2V9H7V6h2v3h1V6h3v3h1V2H2zm1 1h3v2H3V3zm4 0h2v2H7V3zm3 0h3v2h-3V3zM3 6h3v3H3V6zm8 3v2H9v1h2v2h1v-2h2v-1h-2V9h-1zm-8 1h3v3H3v-3z" fill="currentColor" color="#5d656b"/><path d="M3 3h3v2H3z" color="#000" fill="#1d99f3"/>a</svg>

<svg xmlns="http://www.w3.org/2000/svg" viewBox="0 0 16 16">
  <defs id="defs3051">
    <style type="text/css" id="current-color-scheme">
      .ColorScheme-Text {
        color:#5d656b;
      }
      .ColorScheme-Highlight {
        color:#3daee9;
      }
      </style>
  </defs>
  <path 
        style="fill:currentColor;fill-opacity:1;stroke:none"
        d="M 2 2 L 2 14 L 9 14 L 9 13 L 7 13 L 7 10 L 9 10 L 9 9 L 7 9 L 7 6 L 9 6 L 9 9 L 10 9 L 10 6 L 13 6 L 13 9 L 14 9 L 14 2 L 2 2 z M 3 3 L 6 3 L 6 5 L 3 5 L 3 3 z M 7 3 L 9 3 L 9 5 L 7 5 L 7 3 z M 10 3 L 13 3 L 13 5 L 10 5 L 10 3 z M 3 6 L 6 6 L 6 9 L 3 9 L 3 6 z M 11 9 L 11 11 L 9 11 L 9 12 L 11 12 L 11 14 L 12 14 L 12 12 L 14 12 L 14 11 L 12 11 L 12 9 L 11 9 z M 3 10 L 6 10 L 6 13 L 3 13 L 3 10 z "
        class="ColorScheme-Text"
        />
  <path
     style="color:#000000;fill:#1d99f3"
     d="M 3,3 6,3 6,5 3,5 Z" />a
</svg>
